packages/symbols/svgs/solid/text-slash-solid.svg

<svg width="16" height="16" viewBox="0 0 16 16" fill="none" xmlns="http://www.w3.org/2000/svg">
<g clip-path="url(#clip0_587_2767)">
<path fill-rule="evenodd" clip-rule="evenodd" d="M15.0399 1.52059C15.3274 1.22242 15.3188 0.747625 15.0206 0.460105C14.7225 0.172585 14.2477 0.181217 13.9601 0.479386L12.2183 2.28571L2 2.28571C0.89543 2.28571 -5.12501e-07 3.18115 -7.0563e-07 4.28572L-2.00448e-06 11.7143C-6.17823e-07 12.578 0.547444 13.3138 1.31426 13.5936L0.460141 14.4794C0.172621 14.7776 0.181253 15.2524 0.479423 15.5399C0.777592 15.8274 1.25239 15.8188 1.53991 15.5206L15.0399 1.52059ZM2.87329 11.9769L2.379 12.4895L1.14284 12.4895L3.80434 3.88256L5.64066 3.88256L6.85988 7.84262L4.51316 10.2763L3.35107 10.2763L2.87329 11.9769ZM7.63883 10.3727L9.16802 8.78684L9.16802 9.63941C9.16802 11.4743 10.0746 12.5714 11.4692 12.5714C12.3641 12.5714 13.0847 12.0985 13.2765 11.4175L13.352 11.4175L13.352 12.4895L14.8571 12.4895L14.8571 3.42857L14.3349 3.42857L15.1118 2.62295C15.6474 2.98179 16 3.59258 16 4.28571L16 11.7143C16 12.8189 15.1046 13.7143 14 13.7143L4.41656 13.7143L6.39146 11.6662L6.62274 12.4895L8.29054 12.4895L7.63883 10.3727ZM13.323 6.81458L13.323 4.47799L12.0669 5.7806C12.6436 5.92668 13.0717 6.29553 13.2532 6.81458L13.323 6.81458ZM13.323 8.66837C13.323 7.66581 12.7651 7.03527 11.998 7.03527C11.2252 7.03527 10.737 7.67212 10.737 8.8134L10.737 9.46286C10.737 10.6104 11.231 11.2536 12.0213 11.2536C12.8 11.2536 13.323 10.6231 13.323 9.53222L13.323 8.66837ZM5.68715 9.00887L4.71669 5.52827L4.64695 5.52827L3.67649 9.00887L5.68715 9.00887Z" fill="black"/>
</g>
<defs>
<clipPath id="clip0_587_2767">
<rect width="16" height="16" fill="white"/>
</clipPath>
</defs>
</svg>

<svg width="16" height="16" viewBox="0 0 16 16" xmlns="http://www.w3.org/2000/svg"><g clip-path="url(#a)"><path fill-rule="evenodd" clip-rule="evenodd" d="M15.04 1.52A.75.75 0 1 0 13.96.48l-1.742 1.806H2a2 2 0 0 0-2 2v7.428a2 2 0 0 0 1.314 1.88l-.854.885a.75.75 0 0 0 1.08 1.042l13.5-14ZM2.873 11.978l-.494.512H1.143l2.661-8.606h1.837l1.219 3.96-2.347 2.433H3.351l-.478 1.7Zm4.766-1.604 1.529-1.586v.852c0 1.835.907 2.932 2.301 2.932.895 0 1.616-.473 1.808-1.153h.075v1.072h1.505V3.428h-.522l.777-.806A2 2 0 0 1 16 4.285v7.428a2 2 0 0 1-2 2H4.417l1.974-2.048.232.823H8.29l-.652-2.116Zm5.684-3.558V4.478l-1.256 1.303c.577.146 1.005.515 1.186 1.034h.07Zm0 1.853c0-1.002-.558-1.633-1.325-1.633-.773 0-1.261.637-1.261 1.778v.65c0 1.147.494 1.79 1.284 1.79.779 0 1.302-.63 1.302-1.72v-.865Zm-7.636.34-.97-3.48h-.07l-.97 3.48h2.01Z"/></g><defs><clipPath id="a"><path fill="#fff" d="M0 0h16v16H0z"/></clipPath></defs></svg>
